images/icons/phenoma-icons/ICONS_Feinstaub.svg

<svg width="33" height="47" viewBox="0 0 33 47" fill="none" xmlns="http://www.w3.org/2000/svg">
<circle cx="16.5" cy="16.5" r="16.5" fill="#EBEBEB"/>
<path d="M26.561 15.1958C26.511 15.3859 26.4733 15.5803 26.4086 15.7653C26.0544 16.778 25.1408 17.4526 24.0706 17.4991C23.9624 17.5038 23.854 17.5056 23.7459 17.5056C18.2547 17.5059 12.7635 17.5059 7.27228 17.5059H7V16.3573H7.26382C12.7741 16.3573 18.2845 16.3555 23.7948 16.3601C24.3307 16.3606 24.7896 16.2144 25.1169 15.7736C25.4424 15.3352 25.5062 14.8457 25.2952 14.3445C25.0851 13.8454 24.699 13.5488 24.1556 13.4679C23.3628 13.3499 22.5607 13.9215 22.5009 14.8845H21.3327C21.3861 14.6122 21.4111 14.3395 21.4938 14.0861C21.8603 12.9642 22.9735 12.2123 24.105 12.3037C25.3663 12.4054 26.3244 13.2746 26.5262 14.4986C26.531 14.528 26.5491 14.5552 26.5609 14.5833L26.561 15.1958Z" fill="#4CA641" stroke="#4CA641" stroke-width="0.75" stroke-miterlimit="10"/>
<path d="M19.4921 21.5154H20.6274C20.6667 21.9495 20.8548 22.2841 21.2445 22.4868C21.6317 22.6884 22.1079 22.6275 22.4568 22.3324C22.7858 22.0539 22.9141 21.5936 22.7808 21.1696C22.6488 20.7498 22.2739 20.4435 21.8446 20.4084C21.7496 20.4006 21.6537 20.4016 21.5582 20.4016C18.7238 20.4012 15.8894 20.4012 13.0552 20.4012H12.8169V19.2609C12.8731 19.2583 12.9336 19.253 12.994 19.253C15.8921 19.2526 18.7901 19.2503 21.6882 19.2538C22.9169 19.2553 23.8721 20.1258 23.9739 21.3225C24.0639 22.3824 23.3844 23.3717 22.3656 23.6635C21.3198 23.963 20.217 23.4861 19.7323 22.5225C19.576 22.2117 19.4878 21.8837 19.4921 21.5154Z" fill="#4CA641" stroke="#4CA641" stroke-width="0.75" stroke-miterlimit="10"/>
<path d="M10.4995 13.7124V12.5638H10.7282C13.1102 12.5638 15.4921 12.5645 17.8741 12.5633C18.4824 12.563 18.9143 12.2386 19.0415 11.6935C19.1781 11.1076 18.7813 10.4935 18.1933 10.3808C17.5693 10.2611 16.9777 10.6688 16.886 11.2813C16.8777 11.3368 16.8668 11.3918 16.8568 11.4482H15.7219C15.739 10.7272 16.0186 10.1451 16.5683 9.70022C17.2904 9.1158 18.3009 9.04503 19.0927 9.50928C19.8857 9.9742 20.3374 10.8949 20.1956 11.7578C20.0345 12.7388 19.3596 13.4714 18.429 13.6624C18.2558 13.6979 18.0751 13.7101 17.8978 13.7105C15.4967 13.7134 13.0956 13.7124 10.6947 13.7124H10.4995Z" fill="#4CA641" stroke="#4CA641" stroke-width="0.75" stroke-miterlimit="10"/>
<path d="M15.9189 6H17.0358V7.13138H15.9189V6Z" fill="#4CA641"/>
<path d="M24.6504 6.00098H25.7637V7.12987H24.6504V6.00098Z" fill="#4CA641"/>
<path d="M9.08691 6.84299H10.2014V7.97371H9.08691V6.84299Z" fill="#4CA641"/>
<path d="M21.9182 8.59427H20.7935V7.46985H21.9182V8.59427Z" fill="#4CA641"/>
<path d="M12.2764 8.84088H13.3993V9.96895H12.2764V8.84088Z" fill="#4CA641"/>
<path d="M8.80943 19.1979V20.3198H7.68896V19.1979H8.80943Z" fill="#4CA641"/>
<path d="M14.9745 22.2924V23.4092H13.8452V22.2924H14.9745Z" fill="#4CA641"/>
<path d="M9.22314 24.5644V23.4415H10.3438V24.5644H9.22314Z" fill="#4CA641"/>
<path d="M17.9089 25.5518H16.7856V24.4274H17.9089V25.5518Z" fill="#4CA641"/>
<path d="M21.5337 25.22H22.649V26.3505H21.5337V25.22Z" fill="#4CA641"/>
<path d="M25.7666 23.7831H24.6475V22.6606H25.7666V23.7831Z" fill="#4CA641"/>
</svg>

<?xml version="1.0" encoding="UTF-8"?>
<svg id="Layer_1" xmlns="http://www.w3.org/2000/svg" version="1.1" viewBox="0 0 33 33">
  <!-- Generator: Adobe Illustrator 29.6.1, SVG Export Plug-In . SVG Version: 2.1.1 Build 9)  -->
  <circle cx="16.5" cy="16.5" r="16.5" fill="#ebebeb"/>
  <path d="M26.561,15.196c-.05.19-.088.385-.152.569-.354,1.013-1.268,1.687-2.338,1.734-.108.005-.217.007-.325.007-5.491,0-10.982,0-16.474,0h-.272v-1.149h.264c5.51,0,11.021-.002,16.531.003.536,0,.995-.146,1.322-.587.326-.438.389-.928.178-1.429-.21-.499-.596-.796-1.14-.877-.793-.118-1.595.454-1.655,1.417h-1.168c.053-.272.078-.545.161-.798.367-1.122,1.48-1.874,2.611-1.782,1.261.102,2.219.971,2.421,2.195.005.029.023.057.035.085v.613Z" fill="#4ca641" stroke="#4ca641" stroke-miterlimit="10" stroke-width=".75"/>
  <path d="M19.492,21.515h1.135c.039.434.227.769.617.971.387.202.863.141,1.212-.154.329-.278.457-.739.324-1.163-.132-.42-.507-.726-.936-.761-.095-.008-.191-.007-.286-.007-2.834,0-5.669,0-8.503,0h-.238v-1.14c.056-.003.117-.008.177-.008,2.898,0,5.796-.003,8.694,0,1.229.002,2.184.872,2.286,2.069.09,1.06-.59,2.049-1.608,2.341-1.046.299-2.149-.177-2.633-1.141-.156-.311-.244-.639-.24-1.007Z" fill="#4ca641" stroke="#4ca641" stroke-miterlimit="10" stroke-width=".75"/>
  <path d="M10.5,13.712v-1.149h.229c2.382,0,4.764,0,7.146,0,.608,0,1.04-.325,1.167-.87.137-.586-.26-1.2-.848-1.313-.624-.12-1.216.288-1.307.9-.008.056-.019.111-.029.167h-1.135c.017-.721.297-1.303.846-1.748.722-.584,1.733-.655,2.524-.191.793.465,1.245,1.386,1.103,2.249-.161.981-.836,1.714-1.767,1.905-.173.035-.354.048-.531.048-2.401.003-4.802.002-7.203.002h-.195Z" fill="#4ca641" stroke="#4ca641" stroke-miterlimit="10" stroke-width=".75"/>
  <path d="M15.919,6h1.117v1.131h-1.117v-1.131Z" fill="#4ca641"/>
  <path d="M24.65,6.001h1.113v1.129h-1.113v-1.129Z" fill="#4ca641"/>
  <path d="M9.087,6.843h1.114v1.131h-1.114v-1.131Z" fill="#4ca641"/>
  <path d="M21.918,8.594h-1.125v-1.124h1.125v1.124Z" fill="#4ca641"/>
  <path d="M12.276,8.841h1.123v1.128h-1.123v-1.128Z" fill="#4ca641"/>
  <path d="M8.809,19.198v1.122h-1.12v-1.122h1.12Z" fill="#4ca641"/>
  <path d="M14.974,22.292v1.117h-1.129v-1.117h1.129Z" fill="#4ca641"/>
  <path d="M9.223,24.564v-1.123h1.121v1.123h-1.121Z" fill="#4ca641"/>
  <path d="M17.909,25.552h-1.123v-1.124h1.123v1.124Z" fill="#4ca641"/>
  <path d="M21.534,25.22h1.115v1.131h-1.115v-1.131Z" fill="#4ca641"/>
  <path d="M25.767,23.783h-1.119v-1.122h1.119v1.122Z" fill="#4ca641"/>
</svg>
